X: 41576
T: Untitled
R: reel
M: 4/4
K: Amixolydian
|(3ABA GE GABc|dEEe EdcB|AB (3cdc BAGF|EDB,D A,DB,D|
EA,DE GDEG|ABEc Edcd|{d}e2 dc dcAE|(3GAB AG FGE2|
(3ABA GE GABc|dEEe EdcB|AB (3cdc BAGF|EDB,D A,DB,D|
EA,A,A EEBE|{3cdc BA Bcde|zAgf dedB|AdAG FEDE|

